X: 01036
T: DEER RUN NORTH
C: Bob McQuillen Aug'73
B: Bob's Note Book 1 #36
%R: hornpipe, shottish
Z: 2019 John Chambers <jc:trillian.mit.edu>
M: C
L: 1/8
K: G
d>c \
| B>dG>A B>GA>B | c>Bc>e d2d>c | B>GB>d e>dB>d | c>BA>G A2d>c |
| B>dG>A B>GA>B | c>Bc>e d2d>c | B>GB>d e>gd>c | B2G2 G2 ||
|| F>G \
| A2c>A d>cB>A | B2d>B G>Bd>B | c>de>d c>BA>G | F>GA>B A2F>G |
| A2c>A d>cB>A | B2d>B G>Bd>B | c>de>f g>ed>c | B2G2 G2 |]
%%begintext align
%% For Johnny and Sandy and David
%% and Cathy and Earl and Ann
%% and Dan and Beau & Reverse!
%% The Wonderful Eneguess Family.
%%endtext

%%sep 1 1 500

%%sep 1 1 500

